!!!COM: Music21
!!!OTL: slide_Mullin
!!!OMV: slide_Mullin
**kern
*clefG2
*k[f#c#]
*D:
*M12/8
=1
4f#
8a
8ddL
8b
8aJ
4b
8a
4f#
8a
=
4b
8e
8eL
8d
8eJ
4f#
8e
4d
8e
=
4f#
8a
8ddL
8b
8aJ
4b
8a
4f#
8a
=
4b
8b
8cc#L
8b
8cc#J
4.dd
4dd
8a
!!linebreak:original
=||
*M12/8
4f#
8a
8ddL
8b
8aJ
4b
8a
4f#
8a
=
4b
8e
8eL
8d
8eJ
4f#
8e
4d
8e
=
4f#
8a
8ddL
8b
8aJ
4b
8a
4f#
8a
=
4b
8b
8cc#L
8b
8cc#J
4.dd
4dd
8b
!!linebreak:original
=||
4a
8dd
8ddL
8cc#
8ddJ
4b
8a
4f#
8a
=
4b
8b
8bL
8a
8bJ
4cc#
8a
4f#
8g
=
4a
8dd
8ddL
8cc#
8ddJ
4b
8a
4f#
8a
=
4b
8ee
4ee
8cc#
4.dd
4dd
8b
!!linebreak:original
=||
4a
8dd
8ddL
8cc#
8ddJ
4b
8a
4f#
8a
=
4b
8b
8bL
8a
8bJ
4cc#
8a
4f#
8g
=
4a
8dd
8ddL
8cc#
8ddJ
4b
8a
4f#
8a
=
4b
8ee
4ee
8cc#
4.dd
4a
8g
=||
*-
